src/lib/packages/icons/src/assets/filled/clock.svg

<svg xmlns="http://www.w3.org/2000/svg" width="24" height="24" fill="none"><path fill="currentColor" fill-rule="evenodd" d="M12 2C6.477 2 2 6.477 2 12s4.477 10 10 10 10-4.477 10-10S17.523 2 12 2Zm3.53 13.53a.748.748 0 0 1-1.06 0l-3-3a.75.75 0 0 1-.22-.53V7a.75.75 0 0 1 1.5 0v4.689l2.78 2.78a.75.75 0 0 1 0 1.061Z" clip-rule="evenodd"/></svg>

<svg width="24" height="24" viewBox="0 0 24 24" fill="none" xmlns="http://www.w3.org/2000/svg">
<path fill-rule="evenodd" clip-rule="evenodd" d="M12 2C6.477 2 2 6.477 2 12C2 17.523 6.477 22 12 22C17.523 22 22 17.523 22 12C22 6.477 17.523 2 12 2ZM15.53 15.53C15.384 15.676 15.192 15.75 15 15.75C14.808 15.75 14.616 15.677 14.47 15.53L11.47 12.53C11.329 12.389 11.25 12.198 11.25 12V7C11.25 6.586 11.586 6.25 12 6.25C12.414 6.25 12.75 6.586 12.75 7V11.689L15.53 14.469C15.823 14.763 15.823 15.237 15.53 15.53Z" fill="currentColor"/>
</svg>
